!! 00000] TT[WS
!!!OTL: Xiangni xiangzai xinlitau
!!!ARE: Asia, China, Shanxi Hequ
!! Ethnic Group: Han
!! WII, 34 (2)
!!!SCT: J0446
!!!YEM: Copyright 1995, estate of Helmut Schaffrath.
**kern
*ICvox
*Ivox
*M2/4
*k[b-e-a-d-]
*A-:
{8aa-
16aa-
16ccc
8bb-
16aa-
16bb-
=1
8ccc
16ccc
16fff
8eee-
16ccc
16bb-
=2
8.aa-
16ee-
8ff
16ee-
16cc
=3
2b-}
=4
{8aa-
16aa-
16ccc
8bb-
16aa-
16bb-
=5
8ccc
16ccc
16fff
8eee-
16ccc
16bb-
=6
8.aa-
16ee-
8ff
16ee-
16cc
=7
2ee-}
==
!!!AGN: Shange, Shanqu. Qingge
!!!ONB: ESAC (Essen Associative Code) Database: CHINA
!!!AMT: simple duple
!!!AIN: vox
!!!EED: Helmut Schaffrath
!!!EEV: 1.0
*-
